assets/images/avatars/user/custom-avatars/season-f1/trophy-yellow600.svg

<svg width="52" height="52" viewBox="0 0 52 52" fill="none" xmlns="http://www.w3.org/2000/svg">
<g clip-path="url(#clip0_26_81631)">
<rect width="52" height="52" fill="#D18000"/>
<path d="M26 52C40.3594 52 52 40.3594 52 26C52 11.6406 40.3594 0 26 0C11.6406 0 0 11.6406 0 26C0 40.3594 11.6406 52 26 52Z" fill="#D18000"/>
<path d="M25.9999 46.7669C37.4691 46.7669 46.7667 37.4693 46.7667 26.0002C46.7667 14.531 37.4691 5.2334 25.9999 5.2334C14.5308 5.2334 5.23315 14.531 5.23315 26.0002C5.23315 37.4693 14.5308 46.7669 25.9999 46.7669Z" fill="#D18000" stroke="#002140" stroke-width="0.65" stroke-miterlimit="10"/>
<path d="M44.4617 14.7479C44.8147 18.5551 42.2777 20.3273 39.8791 22.1824C39.2769 22.6462 38.8443 22.9854 38.5466 23.2588C37.6536 24.0757 38.0759 24.6294 38.8062 25.4359C40.9452 27.7894 36.8472 30.7175 34.9643 27.073C34.7082 26.5746 34.4348 25.7508 34.549 24.7713C34.6805 23.6638 35.307 22.3555 37.0168 21.1095C40.2322 18.7628 41.5889 16.9215 41.7793 15.6201C41.9766 14.2668 40.959 12.1348 39.0519 12.339C37.439 12.512 37.0583 13.5469 36.951 14.1457C36.7676 15.1563 37.3594 15.9316 37.7159 16.5442C38.5327 17.9633 37.5117 18.7663 37.2244 18.8909C36.9164 19.0224 36.3972 19.1366 35.7535 18.8355C35.2066 18.5828 34.5594 17.5549 34.3759 16.4646L34.3413 16.4716C34.3136 16.347 34.2756 16.2293 34.2271 16.1151L34.2998 16.1012C33.5903 13.3738 35.2966 9.84004 39.2077 9.72236C41.1667 9.66352 44.1294 11.1691 44.4617 14.7479Z" fill="#FED607"/>
<path d="M34.3552 17.1848C34.286 17.5863 34.0956 17.9462 33.8153 18.2265C33.4657 18.5761 32.9846 18.7942 32.4551 18.7942H18.8597C17.8006 18.7942 16.9319 17.9254 16.9319 16.8663C16.9319 16.7313 16.9457 16.5998 16.9734 16.4718C16.9976 16.3506 17.0357 16.2295 17.0842 16.1187C17.1811 15.8868 17.323 15.6792 17.4995 15.5061C17.8491 15.1565 18.3302 14.9385 18.8597 14.9385H32.4551C33.2476 14.9385 33.9364 15.4265 34.2306 16.1187C34.2791 16.233 34.3171 16.3506 34.3448 16.4752C34.369 16.6033 34.3829 16.7348 34.3829 16.8663C34.3829 16.9736 34.3725 17.0809 34.3552 17.1848Z" fill="#E4BC07"/>
<path d="M34.3553 17.1846V23.207C34.3553 23.7435 34.3206 24.2523 34.2549 24.7334C33.6111 29.5997 29.8904 31.7664 26.6646 31.7664V31.7941H24.6191V31.7664C21.3933 31.7664 17.6761 29.5997 17.0288 24.7368C16.9631 24.2523 16.9285 23.7435 16.9285 23.207V16.8662C16.9285 17.9253 17.7972 18.7941 18.8563 18.7941H32.4516C32.9812 18.7941 33.4623 18.576 33.8119 18.2264C34.0887 17.9495 34.2826 17.5861 34.3518 17.1846H34.3553Z" fill="#FED607"/>
<path d="M30.2849 43.4268C31.1848 43.4268 31.922 44.1605 31.922 45.0604C31.922 45.5104 31.7386 45.9188 31.441 46.2164C31.1433 46.5141 30.7349 46.6975 30.2849 46.6975H21.016C20.1161 46.6975 19.3789 45.9638 19.3789 45.0604C19.3789 44.6105 19.5624 44.2021 19.86 43.9079C20.1577 43.6102 20.5661 43.4268 21.016 43.4268H30.2849Z" fill="#FED607"/>
<path d="M28.8691 41.0283C29.5198 41.0283 30.0494 41.5613 30.0494 42.2086C30.0494 42.5339 29.9179 42.8281 29.7033 43.0427C29.4887 43.2573 29.1945 43.3888 28.8691 43.3888H22.4522C21.805 43.3888 21.272 42.8558 21.272 42.2086C21.272 41.8832 21.4035 41.589 21.6181 41.3744C21.8327 41.1598 22.1269 41.0283 22.4522 41.0283H28.8691Z" fill="#E4BC07"/>
<path d="M27.7374 33.7945H23.5391C23.2657 33.7945 23.013 33.6803 22.833 33.5003C22.653 33.3203 22.5388 33.0676 22.5388 32.7942C22.5388 32.2439 22.9888 31.7939 23.5391 31.7939H27.7582C28.0316 31.7939 28.2843 31.9082 28.4643 32.0882C28.6442 32.2681 28.7585 32.5208 28.7585 32.7942C28.7585 33.3445 28.3085 33.7945 27.7582 33.7945H27.7409H27.7374Z" fill="#E4BC07"/>
<path d="M28.3398 40.8171V41.0282H22.9612V40.8171C23.4492 38.7473 23.6153 35.487 23.56 33.791H27.741C27.6856 35.487 27.8518 38.7473 28.3398 40.8171Z" fill="#FED607"/>
<path d="M17.0184 16.1012L17.0876 16.1185C17.0391 16.2327 17.0011 16.3504 16.9768 16.4716L16.9492 16.4646C16.7692 17.5549 16.1185 18.5794 15.5716 18.8355C14.9244 19.1366 14.4087 19.0224 14.1006 18.8909C13.8134 18.7697 12.7923 17.9633 13.6092 16.5477C13.9657 15.9316 14.5575 15.1598 14.3706 14.1491C14.2599 13.5469 13.8791 12.512 12.2697 12.339C10.3626 12.1348 9.34506 14.2668 9.54235 15.6201C9.73271 16.918 11.086 18.7628 14.3049 21.1095C16.0147 22.3555 16.6411 23.6603 16.7726 24.7713C16.8869 25.7474 16.6134 26.5711 16.3573 27.0695C14.4745 30.7141 10.3765 27.7894 12.5155 25.4359C13.2458 24.6294 13.6715 24.0757 12.775 23.2588C12.4774 22.9854 12.0413 22.6462 11.4425 22.1824C9.04394 20.3273 6.50694 18.5551 6.85997 14.7479C7.19224 11.1726 10.155 9.66352 12.114 9.72236C16.025 9.84003 17.7279 13.3773 17.0218 16.1012H17.0184Z" fill="#FED607"/>
<path d="M16.9457 16.4646C16.7658 17.5549 16.1151 18.5794 15.5682 18.8355C14.921 19.1366 14.4053 19.0224 14.0972 18.8909C13.81 18.7697 12.7889 17.9633 13.6058 16.5477C13.9623 15.9316 14.5541 15.1598 14.3672 14.1491C14.2565 13.5469 13.8757 12.512 12.2663 12.339C10.3592 12.1348 9.34165 14.2668 9.53893 15.6201C9.72929 16.918 11.0826 18.7628 14.3014 21.1095C16.0112 22.3555 16.6377 23.6603 16.7692 24.7713C16.8835 25.7474 16.61 26.5711 16.3539 27.0695C14.471 30.7141 10.3731 27.7894 12.512 25.4359C13.2423 24.6294 13.6681 24.0757 12.7716 23.2588C12.474 22.9854 12.0379 22.6462 11.4391 22.1824C9.04052 20.3273 6.50352 18.5551 6.85656 14.7479C7.18882 11.1726 10.1515 9.66352 12.1105 9.72236C16.0216 9.84003 17.7245 13.3773 17.0184 16.1012" stroke="#002140" stroke-width="0.65" stroke-linecap="round" stroke-linejoin="round"/>
<path d="M34.376 16.4686C34.5595 17.5588 35.2067 18.5868 35.7536 18.8394C36.4008 19.1405 36.92 19.0263 37.2246 18.8948C37.5118 18.7702 38.5329 17.9672 37.716 16.5482C37.3595 15.9321 36.7677 15.1602 36.9511 14.1496C37.0619 13.5508 37.4426 12.5125 39.052 12.3429C40.9591 12.1387 41.9767 14.2707 41.7794 15.624C41.589 16.922 40.2357 18.7667 37.0169 21.1134C35.3036 22.3594 34.6806 23.6642 34.5491 24.7753C34.4349 25.7548 34.7083 26.5785 34.9644 27.0769C36.8473 30.7215 40.9453 27.7968 38.8063 25.4398C38.076 24.6334 37.6537 24.0796 38.5467 23.2628C38.8444 22.9893 39.2805 22.6501 39.8792 22.1863C42.2778 20.3312 44.8148 18.5591 44.4618 14.7518C44.1295 11.1765 41.1703 9.66742 39.2078 9.72626C35.2967 9.84394 33.5938 13.3778 34.2999 16.1051" stroke="#002140" stroke-width="0.65" stroke-linecap="round" stroke-linejoin="round"/>
<path d="M27.7375 33.7945H27.7548C28.3051 33.7945 28.7551 33.3445 28.7551 32.7942C28.7551 32.5208 28.6408 32.2681 28.4609 32.0882C28.2809 31.9082 28.0282 31.7939 27.7548 31.7939H23.5357C22.9854 31.7939 22.5354 32.2439 22.5354 32.7942C22.5354 33.0676 22.6496 33.3203 22.8296 33.5003C23.0096 33.6803 23.2622 33.7945 23.5357 33.7945H27.734H27.7375Z" stroke="#002140" stroke-width="0.65" stroke-linecap="round" stroke-linejoin="round"/>
<path d="M28.3398 41.0283H28.8694C29.5201 41.0283 30.0496 41.5613 30.0496 42.2086C30.0496 42.5339 29.9181 42.8281 29.7035 43.0427C29.4889 43.2573 29.1947 43.3888 28.8694 43.3888H22.4525C21.8052 43.3888 21.2722 42.8558 21.2722 42.2086C21.2722 41.8832 21.4037 41.589 21.6183 41.3744C21.8329 41.1598 22.1271 41.0283 22.4525 41.0283H28.3398Z" stroke="#002140" stroke-width="0.65" stroke-linecap="round" stroke-linejoin="round"/>
<path d="M30.2849 46.6975H21.016C20.1161 46.6975 19.3789 45.9638 19.3789 45.0604C19.3789 44.6105 19.5624 44.2021 19.86 43.9079C20.1577 43.6102 20.5661 43.4268 21.016 43.4268H30.2849C31.1848 43.4268 31.922 44.1605 31.922 45.0604C31.922 45.5104 31.7386 45.9188 31.441 46.2164C31.1433 46.5141 30.7349 46.6975 30.2849 46.6975Z" stroke="#002140" stroke-width="0.65" stroke-linecap="round" stroke-linejoin="round"/>
<path d="M34.3552 17.1848C34.286 17.5863 34.0956 17.9462 33.8153 18.2265C33.4657 18.5761 32.9846 18.7942 32.4551 18.7942H18.8597C17.8006 18.7942 16.9319 17.9254 16.9319 16.8663C16.9319 16.7313 16.9457 16.5998 16.9734 16.4718C16.9976 16.3506 17.0357 16.2295 17.0842 16.1187C17.1811 15.8868 17.323 15.6792 17.4995 15.5061C17.8491 15.1565 18.3302 14.9385 18.8597 14.9385H32.4551C33.2476 14.9385 33.9364 15.4265 34.2306 16.1187C34.2791 16.233 34.3171 16.3506 34.3448 16.4752C34.369 16.6033 34.3829 16.7348 34.3829 16.8663C34.3829 16.9736 34.3725 17.0809 34.3552 17.1848Z" stroke="#002140" stroke-width="0.65" stroke-linecap="round" stroke-linejoin="round"/>
<path d="M16.9319 16.793V23.2099C16.9319 23.7464 16.9665 24.2586 17.0322 24.7397C17.6795 29.6061 21.3967 31.7693 24.6225 31.7693" stroke="#002140" stroke-width="0.65" stroke-linecap="round" stroke-linejoin="round"/>
<path d="M34.3552 16.793V23.2099C34.3552 23.7464 34.3206 24.2551 34.2548 24.7362C33.611 29.6026 29.8903 31.7693 26.6646 31.7693" stroke="#002140" stroke-width="0.65" stroke-linecap="round" stroke-linejoin="round"/>
<path d="M23.5599 33.7842V33.7946C23.6153 35.4905 23.4492 38.7509 22.9612 40.8207" stroke="#002140" stroke-width="0.65" stroke-linecap="round" stroke-linejoin="round"/>
<path d="M27.7375 33.7842V33.7946C27.6821 35.4905 27.8482 38.7509 28.3363 40.8207" stroke="#002140" stroke-width="0.65" stroke-linecap="round" stroke-linejoin="round"/>
</g>
<defs>
<clipPath id="clip0_26_81631">
<rect width="52" height="52" fill="white"/>
</clipPath>
</defs>
</svg>

<svg xmlns="http://www.w3.org/2000/svg" width="52" height="52" fill="none" viewBox="0 0 52 52"><g clip-path="url(#a)"><path fill="#d18000" d="M0 0h52v52H0z"/><path fill="#d18000" d="M26 52c14.36 0 26-11.64 26-26S40.36 0 26 0 0 11.64 0 26s11.64 26 26 26"/><path fill="#d18000" stroke="#002140" stroke-miterlimit="10" stroke-width=".65" d="M26 46.767c11.47 0 20.767-9.298 20.767-20.767S37.469 5.233 26 5.233C14.53 5.233 5.233 14.531 5.233 26c0 11.47 9.298 20.767 20.767 20.767Z"/><path fill="#fed607" d="M44.462 14.748c.353 3.807-2.184 5.58-4.583 7.434-.602.464-1.035.803-1.332 1.077-.893.817-.471 1.37.26 2.177 2.138 2.353-1.96 5.282-3.843 1.637a4.07 4.07 0 0 1-.415-2.302c.132-1.107.758-2.416 2.468-3.661 3.215-2.347 4.572-4.188 4.762-5.49.198-1.353-.82-3.485-2.727-3.281-1.613.173-1.994 1.208-2.101 1.807-.183 1.01.408 1.786.765 2.398.817 1.42-.204 2.222-.492 2.347-.308.131-.827.246-1.47-.055-.547-.253-1.195-1.281-1.378-2.371l-.035.007a2 2 0 0 0-.114-.357l.073-.014c-.71-2.727.997-6.261 4.908-6.379 1.959-.058 4.921 1.447 5.254 5.026"/><path fill="#e4bc07" d="M34.355 17.185a1.94 1.94 0 0 1-1.9 1.609H18.86a1.935 1.935 0 0 1-1.887-2.322 1.7 1.7 0 0 1 .111-.353 1.9 1.9 0 0 1 .416-.613c.35-.35.83-.568 1.36-.568h13.595a1.937 1.937 0 0 1 1.928 1.928q0 .163-.028.319"/><path fill="#fed607" d="M34.355 17.185v6.022q0 .805-.1 1.526c-.644 4.867-4.365 7.033-7.59 7.033v.028h-2.046v-.028c-3.226 0-6.943-2.166-7.59-7.03q-.1-.725-.1-1.529v-6.34c0 1.058.868 1.927 1.927 1.927h13.596a1.944 1.944 0 0 0 1.9-1.61zm-4.07 26.242c.9 0 1.637.733 1.637 1.633 0 .45-.183.859-.481 1.156a1.63 1.63 0 0 1-1.156.481h-9.269a1.64 1.64 0 0 1-1.637-1.637c0-.45.183-.858.481-1.152a1.63 1.63 0 0 1 1.156-.481z"/><path fill="#e4bc07" d="M28.87 41.028c.65 0 1.18.533 1.18 1.18 0 .326-.132.62-.347.835a1.18 1.18 0 0 1-.834.346h-6.417a1.178 1.178 0 1 1 0-2.361zm-1.133-7.233H23.54a1.003 1.003 0 0 1-1-1c0-.551.45-1.001 1-1.001h4.22a1.003 1.003 0 0 1 1 1c0 .55-.45 1-1 1h-.022"/><path fill="#fed607" d="M28.34 40.817v.211h-5.38v-.21c.488-2.07.654-5.331.599-7.027h4.181c-.055 1.696.11 4.956.599 7.026M17.018 16.101l.07.018a2 2 0 0 0-.111.353l-.028-.007c-.18 1.09-.83 2.114-1.377 2.37-.648.302-1.163.187-1.471.056-.288-.121-1.309-.928-.492-2.343.357-.616.948-1.388.762-2.399-.111-.602-.492-1.637-2.101-1.81-1.907-.204-2.925 1.928-2.728 3.281.19 1.298 1.544 3.143 4.763 5.49 1.71 1.245 2.336 2.55 2.468 3.661.114.976-.16 1.8-.416 2.299-1.882 3.644-5.98.72-3.841-1.634.73-.807 1.156-1.36.259-2.177-.298-.274-.734-.613-1.332-1.077-2.4-1.855-4.936-3.627-4.583-7.434.332-3.575 3.295-5.084 5.254-5.026 3.911.118 5.614 3.655 4.908 6.38z"/><path stroke="#002140" stroke-linecap="round" stroke-linejoin="round" stroke-width=".65" d="M16.946 16.465c-.18 1.09-.83 2.114-1.378 2.37-.647.302-1.163.187-1.47.056-.288-.121-1.31-.928-.492-2.343.356-.616.948-1.388.761-2.399-.11-.602-.491-1.637-2.1-1.81-1.908-.204-2.925 1.928-2.728 3.281.19 1.298 1.544 3.143 4.762 5.49 1.71 1.245 2.337 2.55 2.468 3.661.115.976-.159 1.8-.415 2.299-1.883 3.644-5.98.72-3.842-1.634.73-.807 1.156-1.36.26-2.177-.298-.274-.734-.613-1.333-1.077-2.398-1.855-4.935-3.627-4.582-7.434.332-3.575 3.295-5.084 5.254-5.026 3.91.118 5.613 3.655 4.907 6.38m17.358.367c.184 1.09.83 2.118 1.378 2.37.647.302 1.166.187 1.47.056.288-.125 1.309-.928.492-2.347-.357-.616-.948-1.388-.765-2.398.11-.6.492-1.638 2.101-1.807 1.907-.204 2.925 1.928 2.727 3.281-.19 1.298-1.543 3.143-4.762 5.49-1.713 1.245-2.336 2.55-2.468 3.661-.114.98.16 1.803.415 2.302 1.883 3.644 5.981.72 3.842-1.637-.73-.807-1.152-1.36-.26-2.177.298-.274.735-.613 1.333-1.077 2.399-1.855 4.936-3.627 4.583-7.434-.333-3.575-3.292-5.085-5.254-5.026-3.911.118-5.614 3.652-4.908 6.38m-6.562 17.689h.017c.55 0 1-.45 1-1a1.003 1.003 0 0 0-1-1.001h-4.22c-.55 0-1 .45-1 1a1.003 1.003 0 0 0 1 1h4.202m.603 7.234h.53c.65 0 1.18.533 1.18 1.18 0 .326-.132.62-.347.835a1.17 1.17 0 0 1-.834.346h-6.416c-.648 0-1.18-.533-1.18-1.18a1.176 1.176 0 0 1 1.18-1.181zm1.945 5.67h-9.269a1.64 1.64 0 0 1-1.637-1.638c0-.45.183-.858.481-1.152a1.63 1.63 0 0 1 1.156-.481h9.269c.9 0 1.637.733 1.637 1.633 0 .45-.183.859-.481 1.156a1.63 1.63 0 0 1-1.156.481"/><path stroke="#002140" stroke-linecap="round" stroke-linejoin="round" stroke-width=".65" d="M34.355 17.185a1.94 1.94 0 0 1-1.9 1.609H18.86a1.935 1.935 0 0 1-1.887-2.322 1.7 1.7 0 0 1 .111-.353 1.9 1.9 0 0 1 .416-.613c.35-.35.83-.568 1.36-.568h13.595a1.937 1.937 0 0 1 1.928 1.928q0 .163-.028.319"/><path stroke="#002140" stroke-linecap="round" stroke-linejoin="round" stroke-width=".65" d="M16.932 16.793v6.417c0 .536.035 1.049.1 1.53.648 4.866 4.365 7.03 7.59 7.03m9.733-14.977v6.417q0 .804-.1 1.526c-.644 4.867-4.365 7.033-7.59 7.033m-3.105 2.015v.01c.055 1.697-.11 4.957-.599 7.027m4.777-7.037v.01c-.056 1.697.11 4.957.598 7.027"/></g><defs><clipPath id="a"><path fill="#fff" d="M0 0h52v52H0z"/></clipPath></defs></svg>
